X: 71
T: Daj swe baczenie, Boże, królowi,
C: Mikołaj Gomółka
%%abc-version 2.0
%%abcx-abcm2ps-target-version 5.9.1 (29 Sep 2008)
%%abc-creator hum2abc beta
%%abcx-conversion-date 2021/10/04 07:59:10
%%abc-edited-by Marta Lawrence
%%abcx-initial-encoding-date 2020-02-13
%%humdrum-veritas 2201738028
%%humdrum-veritas-data 67479550
%%linebreak <none>
%%barnumbers 0
L: 1/4
M: C|
N: Derived from pl-wn--sd-xvi-qu-273--072_gomolka-mikolaj--daj-swe-baczenie-boze-krolowi.krn
%%staves [1 2 3 4]
V: 1
V: 2 clef=alto
V: 3 clef=alto
V: 4 clef=bass
K: C
[V:1] G4G2A4 [|] 
[V:2] D4E2F4 [|] 
[V:3] B,4C2C4 [|] 
[V:4] G,4C,2F,3 [|] 
[V:1] B2c2B4 [|] 
[V:2] F2G2G4 [|] 
[V:3] D2E2D4 [|] 
[V:4] E,D,2C,2G,4 [|] 
[V:1] A2A2GF [|] 
[V:2] E2F2D2 [|] 
[V:3] C2C2B,2 [|] 
[V:4] A,2F,2G,2 [|] 
[V:1] E4 :|]  
[V:2] E4 :|]  
[V:3] C4 :|]  
[V:4] C,4 :|]  
[V:1] c4 [I:setbarnb 5][|] 
[V:2] G4 [|] 
[V:3] E4 [|] 
[V:4] C,4 [|] 
[V:1] B2A4A2 [|] 
[V:2] G2F4F2 [|] 
[V:3] D2D4D2 [|] 
[V:4] G,,2D,4D,2 [|] 
[V:1] A2d4B2 [|] 
[V:2] E2F2D2G2 [|] 
[V:3] C2A,2B,4 [|] 
[V:4] A,2F,2G,2G,,2 [|] 
[V:1] e2dcB2c2 [|] 
[V:2] G2F2G2G2 [|] 
[V:3] C2A,2B,2E2 [|] 
[V:4] C,2D,2G,,2C,2 [|] 
[V:1] c4B4 [|] 
[V:2] G4G4 [|] 
[V:3] E4D4 [|] 
[V:4] E,2>F,2G,2G,,2 [|] 
[V:1] A4A2F4 [|] 
[V:2] F2F4C2 [|] 
[V:3] D2D2>C2A,2 [|] 
[V:4] D,2D,2>E,2F,2 [|] 
[V:1] E2FG2F [|] 
[V:2] D2B,CD4 [|] 
[V:3] A,2G,2A,B,2A, [|] 
[V:4] D,2E,2D,4 [|] 
[V:1] G32 |]  
[V:2] D32 |]  
[V:3] B,32 |]  
[V:4] G,32 |]  


